X:1
T:Title
%%score { ( 1 4 ) | ( 2 3 ) }
L:1/8
M:9/8
K:Db
V:1 treble nm="Grand Piano"
V:4 treble 
V:2 bass 
V:3 bass 
V:1
 z3 z3[Q:1/4=100] FDE | [A,F]3 F3 GDE | [A,F]3 D3 FED | [E,C]3 D3 E=DE |[M:3/4][K:treble] F6 | %5
[M:3/8] FDE |[M:9/8] z3 F3 z3 | [A,F]3 D3 F2 [_CF] | [CE]3 F3 =GAB |[M:3/4] A6 |[M:3/8] A2 A | %11
[M:9/8] e6 z3 | .[GA]3 z3 z3 | e6 z3 |[M:3/4] f6 |[M:3/8] f2 e |[M:9/8] d6 z3 | c3 B3 dcB | %18
 z3 z3 .e3 |[M:3/4] d6 |] %20
V:2
 z3 z3 A,F,G, | z3 A,3 B,2 =A, | z3 F,3 A,G,F, | z3 F,3 G,F,G, |[M:3/4] [D,A,]6 |[M:3/8] A,F,G, | %6
[M:9/8] z3 .D3 B,2 =A, | z3 F,3 A,B,=D, | z3 _C3 B,=CD |[M:3/4] [A,C]6 |[M:3/8] z3 | %11
[M:9/8][K:treble] [A,CG]2 [A,C] [A,C]2 [A,B,G][K:bass] z BA,, | z2 E[K:treble] F3 z3 | %13
 z3 z3 .[A,G]3 |[M:3/4][K:bass] D6 |[M:3/8][K:treble] [A,CA]2 [A,CG] | %16
[M:9/8] [B,DF]2 [B,D] [B,D]2 [B,F][K:bass] [F,=A,F]2 [F,A,E] | G,3- [G,B,D]3 [G,_F]-[G,CF][G,DF] | %18
 [A,DF]3 [B,DF]3[K:bass] [E,B,]2 [A,,A,] |[M:3/4] A,2 z2 z2 |] %20
V:3
 x9 | D,8- D, | D,6- D,2- D,/ z/ | A,,8- A,, |[M:3/4] x6 |[M:3/8] x3 |[M:9/8] D,6- D,2 z | %7
 D,6- D,3/2 z/ z | E,8- E, |[M:3/4] x6 |[M:3/8] x3 |[M:9/8][K:treble] z3 z3[K:bass] .[A,,A,]3 | %12
 D,6[K:treble] z3 | [A,CG]2 [A,C] [A,C]2 [A,B,G] z B,[A,CG] |[M:3/4][K:bass] D,3 F,3 | %15
[M:3/8][K:treble] x3 |[M:9/8] x6[K:bass] x3 | [=A,E]3 z3 .B,3 | x6[K:bass] x3 | %19
[M:3/4] D,2- [D,-B,] [D,A,]3 |] %20
V:4
 x9 | x9 | x9 | x9 |[M:3/4][K:treble] x6 |[M:3/8] x3 |[M:9/8] [A,F]3 z2 C GDE | x9 | x9 | %9
[M:3/4] x6 |[M:3/8] x3 |[M:9/8] z2 G G2 d .[Gc]2 [A,GA] | A,3- [A,d]3 A2 A | z2 G G2 d cde | %14
[M:3/4] F3 A3 |[M:3/8] x3 |[M:9/8] z2 F F2 d d2 c | x9 | A3 d3 G-[GB][Gc] |[M:3/4] F2 G .F3 |] %20

